public/favicon.svg

<svg fill="none" height="509" viewBox="0 0 512 509" width="512" xmlns="http://www.w3.org/2000/svg" xmlns:xlink="http://www.w3.org/1999/xlink"><clipPath id="a"><path d="m0 0h512v509h-512z"/></clipPath><g clip-path="url(#a)"><path d="m508.428 224.537c-5.458-8.228-21.185-10.558-32.794-13.581-14.636-2.082-26.195-13.383-28.726-27.906-3.125-8.724-6.797-17.2-11.063-25.428-1.637-4.61-1.637-9.566 0-14.176 5.705-13.829 13.048-26.964 18.853-40.793 1.041-4.0153.248-8.278-2.233-11.5989-10.022-11.5986-21.284-21.165-31.405-32.0697-3.373-4.6592-9.922-5.7001-14.635-2.3296-.05 0-.1.0496-.149.0991-11.61 6.3941-25.005 11.5986-37.21 18.1414-5.556 3.321-12.502 3.321-18.009 0-11.609-5.7993-24.062-9.6655-35.721-15.3161-4.713-2.3792-8.583-6.1958-10.914-10.9046-5.607-12.8874-10.221-26.3695-14.537-39.85163-1.141-5.70017-6.549-9.516799-12.353-8.575033h-43.858c-4.862.644366-9.178 3.519233-11.609 7.781963-5.705 13.383-9.873 27.4104-15.231 40.8925-1.588 3.9158-4.416 7.1376-8.037 9.3185-15.479 7.0881-31.405 18.6867-46.537 18.3397-15.131-.347-30.958-12.6891-46.536-19.7771l-.943-.6939c-3.82-3.321-9.6246-2.8749-12.9486.9417-.2977.347-.5457.6444-.7442 1.0409-10.4682 10.8056-21.1845 20.4711-31.6527 32.0697-2.7783 3.7175-3.6217 8.575-2.3318 13.0361 5.7055 13.829 13.0481 26.964 18.952 40.793 1.4387 4.263 1.4387 8.873 0 13.135-5.0109 12.789-10.369 26.023-16.2729 37.671-2.0837 4.461-5.6062 8.079-10.0217 10.359-13.0481 5.453-26.5426 10.211-40.03722 14.524-6.25116.991-10.567441 6.84-9.6744175 13.135 0 14.077.5953485 28.253 0 42.429-.5953485 6.047 3.6217075 11.549 9.6744175 12.54 13.14732 4.164 26.29462 8.724 38.84652 14.077 4.9612 2.231 9.0791 5.998 11.6093 10.806 5.8543 11.995 11.0139 24.287 15.4791 36.828 1.7364 4.956 1.7364 10.359 0 15.316-5.8047 13.73-13.1473 26.369-18.6047 39.851-1.2899 4.511-.4465 9.368 2.3318 13.135 9.6744 10.806 20.8372 20.471 30.6108 31.128 3.8202 4.858 10.7663 5.849 15.8263 2.33 12.552-6.642 25.6-12.441 38.4-18.488l7.343-3.123c9.625 5.551 19.845 10.062 30.462 13.383 16.57 3.073 29.321 16.357 31.752 33.011 2.927 10.707 5.457 24.734 13.246 30.087s21.879 1.884 33.29 1.983c26.047 0 27.237 0 34.878-24.883 4.465-20.322 19.448-36.728 39.293-42.974 17.066-8.476 37.259-7.732 53.631 1.983 25.798 14.523 26.642 13.135 47.578-7.683 23.268-22.553 23.864-23.247 8.583-51.252-8.633-15.415-9.178-34.052-1.488-49.963 6.449-21.165 24.111-36.977 45.841-41.14 23.269-6.295 23.269-7.535 23.269-31.029-1.042-12.441 2.431-27.758-3.473-36.481zm-253.321 185.925c-89.253-.694-161.5878-72.516-162.8281-161.637 0-89.865 72.9801-162.6781 162.9271-162.6285 89.898 0 162.729 72.8135 162.778 162.6285-1.091 89.269-73.525 161.19-162.828 161.785v-.099z" fill="#00c605"/><g fill="#ee7d33"><path d="m350.809 163.322c-42.22 14.969-84.44 29.889-126.66 44.957l20.242 18.686c3.324-1.04 6.747-1.536 10.22-1.487 16.521-.545 30.363 12.343 31.057 28.799 0 3.122-.546 6.245-1.637 9.17l20.341 18.686c16.074-38.117 32.05-76.283 47.926-114.449.595-1.487 1.042-3.024 1.984-5.353l-3.473.941z"/><path d="m263.343 281.836c-2.878.743-5.855 1.14-8.831 1.14-16.472.595-30.413-12.144-31.306-28.6 0-2.825.447-5.651 1.29-8.377l-20.341-18.687c-14.437 34.301-28.825 68.65-43.163 102.95l-6.648 16.06 3.622-1.041 125.867-44.759z"/></g></g></svg>

<svg width="512" height="509" viewBox="0 0 512 509" fill="none" xmlns="http://www.w3.org/2000/svg">
<g clip-path="url(#clip0_14_188)">
<path d="M508.428 224.537C502.97 216.309 487.243 213.979 475.634 210.956C460.998 208.874 449.439 197.573 446.908 183.05C443.783 174.326 440.111 165.85 435.845 157.622C434.208 153.012 434.208 148.056 435.845 143.446C441.55 129.617 448.893 116.482 454.698 102.653C455.739 98.6377 454.946 94.375 452.465 91.0541C442.443 79.4555 431.181 69.8891 421.06 58.9844C417.687 54.3252 411.138 53.2843 406.425 56.6548C406.375 56.6548 406.325 56.7044 406.276 56.7539C394.666 63.148 381.271 68.3525 369.066 74.8953C363.51 78.2163 356.564 78.2163 351.057 74.8953C339.448 69.096 326.995 65.2298 315.336 59.5792C310.623 57.2 306.753 53.3834 304.422 48.6746C298.815 35.7872 294.201 22.3051 289.885 8.82297C288.744 3.1228 283.336 -0.693829 277.532 0.247937H233.674C228.812 0.892303 224.496 3.76717 222.065 8.0299C216.36 21.4129 212.192 35.4403 206.834 48.9224C205.246 52.8382 202.418 56.06 198.797 58.2409C183.318 65.329 167.392 76.9276 152.26 76.5806C137.129 76.2336 121.302 63.8915 105.724 56.8035L104.781 56.1096C100.961 52.7886 95.1564 53.2347 91.8324 57.0513C91.5347 57.3983 91.2867 57.6957 91.0882 58.0922C80.62 68.8978 69.9037 78.5633 59.4355 90.1619C56.6572 93.8794 55.8138 98.7369 57.1037 103.198C62.8092 117.027 70.1518 130.162 76.0557 143.991C77.4944 148.254 77.4944 152.864 76.0557 157.126C71.0448 169.915 65.6867 183.149 59.7828 194.797C57.6991 199.258 54.1766 202.876 49.7611 205.156C36.713 210.609 23.2185 215.367 9.72388 219.68C3.47272 220.671 -0.843561 226.52 0.0494625 232.815C0.0494625 246.892 0.644811 261.068 0.0494625 275.244C-0.545886 281.291 3.67117 286.793 9.72388 287.784C22.8712 291.948 36.0185 296.508 48.5704 301.861C53.5316 304.092 57.6495 307.859 60.1797 312.667C66.034 324.662 71.1936 336.954 75.6588 349.495C77.3952 354.451 77.3952 359.854 75.6588 364.811C69.8541 378.541 62.5115 391.18 57.0541 404.662C55.7642 409.173 56.6076 414.03 59.3859 417.797C69.0603 428.603 80.2231 438.268 89.9967 448.925C93.8169 453.783 100.763 454.774 105.823 451.255C118.375 444.613 131.423 438.814 144.223 432.767L151.566 429.644C161.191 435.195 171.411 439.706 182.028 443.027C198.598 446.1 211.349 459.384 213.78 476.038C216.707 486.745 219.237 500.772 227.026 506.125C234.815 511.478 248.905 508.009 260.316 508.108C286.363 508.108 287.553 508.108 295.194 483.225C299.659 462.903 314.642 446.497 334.487 440.251C351.553 431.775 371.746 432.519 388.118 442.234C413.916 456.757 414.76 455.369 435.696 434.551C458.964 411.998 459.56 411.304 444.279 383.299C435.646 367.884 435.101 349.247 442.791 333.336C449.24 312.171 466.902 296.359 488.632 292.196C511.901 285.901 511.901 284.661 511.901 261.167C510.859 248.726 514.332 233.409 508.428 224.686V224.537ZM255.107 410.462C165.854 409.768 93.5192 337.946 92.2789 248.825C92.2789 158.96 165.259 86.1469 255.206 86.1965C345.104 86.1965 417.935 159.01 417.984 248.825C416.893 338.094 344.459 410.015 255.156 410.61V410.511L255.107 410.462Z" fill="#00C605"/>
<path d="M350.809 163.322C308.589 178.291 266.369 193.211 224.149 208.279L244.391 226.965C247.715 225.925 251.138 225.429 254.611 225.478C271.132 224.933 284.974 237.821 285.668 254.277C285.668 257.399 285.122 260.522 284.031 263.447L304.372 282.133C320.446 244.016 336.422 205.85 352.298 167.684C352.893 166.197 353.34 164.66 354.282 162.331L350.809 163.272V163.322Z" fill="#EE7D33"/>
<path d="M263.343 281.836C260.465 282.579 257.488 282.976 254.512 282.976C238.04 283.571 224.099 270.832 223.206 254.376C223.206 251.551 223.653 248.725 224.496 245.999L204.155 227.312C189.718 261.613 175.33 295.962 160.992 330.262L154.344 346.322L157.966 345.281L283.833 300.522L263.343 281.836Z" fill="#EE7D33"/>
</g>
<defs>
<clipPath id="clip0_14_188">
<rect width="512" height="509" fill="white"/>
</clipPath>
</defs>
</svg>
